FINK
CUT[DEN EDELSTEN RITTER]
REG[Europa, Mitteleuropa, Deutschland]
KEY[F0897  08  G 4/4]
MEL[1_  1_123_23  4_323_
    3_  3_345_43  2_1_0_
    1_  1_123_23  4_323_
    3_  3_345_43  2_1_0_
    3_  3_321-712  3_321_
    3_  5_543234  5_543_
    3_  3__1_-7_  -6__
    -7_1_  2_-7_-6_2_  2__0_
    3_  3__3_3_  4__3_
    3_  2_1_4_3_  2__.
    2_  4__2_2_  5__1_
    2_  3__2__  1__0_ //] >>
FCT[erzaehlendes Volks - Lied, Ballade, Ritter]
